X:1
T: John Ray Stewart
C:
R:Reel
Q: 232
K:F
M:4/4
L:1/8
|:f2|cB AG FG A2|cF AF cF Af|cB AG FG AF|Dd d^c d2 d2:|
|:f2|cd fg af ga|fa d1/2c1/2B1/2A1/2 fc Af|cd fg af ga|ca gf d2 df|
cd fg af ga|fa d1/2c1/2B1/2A1/2 fc b1/2a1/2g1/2f1/2|af ge fc df|Ad d^c d2 d2:|
